packages/ffe-icons/icons/filled/lg/package.svg

<svg xmlns="http://www.w3.org/2000/svg" height="40" viewBox="0 -960 960 960" width="40"><path d="M202.565-140.001q-25.846 0-44.205-18.359-18.359-18.359-18.359-44.205v-554.87q0-25.846 18.359-44.205 18.359-18.359 44.205-18.359h554.87q25.846 0 44.205 18.359 18.359 18.359 18.359 44.205v554.87q0 25.846-18.359 44.205-18.359 18.359-44.205 18.359h-554.87Zm174.41-344.744L480-536.052l103.282 51.307q12.563 6.616 24.64-.91 12.077-7.525 12.077-22.038v-262.051H340.001v262.051q0 14.513 12.077 22.038 12.077 7.526 24.897.91Zm-66.976 194.744h140.002q12.769 0 21.384-8.615T480-320q0-12.769-8.615-21.384t-21.384-8.615H309.999q-12.769 0-21.384 8.615T280-320q0 12.769 8.615 21.384t21.384 8.615Z"/></svg>

<svg xmlns="http://www.w3.org/2000/svg" viewBox="0 -960 960 960" width="32" height="32"><path d="M202.57-140q-25.85 0-44.21-18.36T140-202.57v-554.86q0-25.85 18.36-44.21T202.57-820h554.86q25.85 0 44.21 18.36T820-757.43v554.86q0 25.85-18.36 44.21T757.43-140H202.57Zm174.4-344.74L480-536.05l103.28 51.31q12.57 6.61 24.64-.91Q620-493.18 620-507.69v-262.05H340v262.05q0 14.51 12.08 22.04 12.07 7.52 24.89.91ZM310-290h140q12.77 0 21.38-8.62Q480-307.23 480-320t-8.62-21.38Q462.77-350 450-350H310q-12.77 0-21.38 8.62Q280-332.77 280-320t8.62 21.38Q297.23-290 310-290Z"/></svg>
